!!!COM: Martinů, Bohuslav (Jan)
!!!OTL: [T463_Mau-w81p16h10m5-11]
**kern	**kern	**dynam	**kern	**dynam
*grp:A	*grp:A	*grp:A	*grp:B	*grp:B
*part2	*part2	*part2	*part1	*part1
*staff3	*staff2	*staff2	*staff1	*staff1
*I"Piano	*I"Piano	*I"Piano	*I"Flute	*I"Flute
*I'Pno.	*	*	*I'Fl.	*
*clefF4	*clefG2	*	*clefG2	*
*k[]	*k[]	*	*k[]	*
*C:	*C:	*	*C:	*
*M3/4	*M3/4	*	*M3/4	*
=1	=1	=1	=1	=1
8ryy	16ryy	4ryy	8r'	.
.	16ryy	.	.	.
8ryy	8ryy	.	(16fffLL	f
.	.	.	16eeeJJ	.
8ryy	8ryy	.	8fff'L)	.
8ryy	16ryy	.	8ddd'J	.
.	16ryy	.	.	.
8ryy	8ryy	.	(16bb-XLL	.
.	.	.	16aaJ	.
8ryy	8ryy	.	8bb-'J)	.
=2	=2	=2	=2	=2
8ryy	16ryy	.	8gg'L	.
.	16ryy	.	.	.
8ryy	8ryy	.	(16gggL	.
.	.	.	16fffJJ	.
8ryy	8ryy	.	8ggg'L)	.
8ryy	16ryy	.	8eee'J	.
.	16ryy	.	.	.
8ryy	8ryy	4ryy	(16cccLL	.
.	.	.	16bbJ	.
8ryy	8ryy	.	8ccc'J)	.
=3	=3	=3	=3	=3
8ryy	16ryy	.	8aa'L	.
.	16ryy	.	.	.
8ryy	8ryy	.	(16aaaL	.
.	.	.	16gggJJ	.
8ryy	8ryy	4ryy	8aaaL)	.
8ryy	8ryy	.	8fffJ	.
8ryy	8ryy	.	8aaL	.
8ryy	8ryy	.	(8dddJ	.
=4	=4	=4	=4	=4
8ryy	8ryy	.	8aaa'L)	.
8ryy	8ryy	.	8fff'J	.
8ryy	8ryy	.	8aa'L	.
8ryy	8ryy	.	(8dddJ	.
8ryy	8ryy	.	8aaa'L)	.
8ryy	8ryy	4ryy	8eee'J	.
=5	=5	=5	=5	=5
8ryy	8ryy	.	8aa'L	.
8ryy	8ryy	.	(8eeeJ	.
8ryy	8ryy	.	8aaa'L)	.
8ryy	8ryy	.	8ccc'J	.
8ryy	8ryy	4ryy	8gg'L	.
8ryy	8ryy	4ryy	(8eee-XJ	.
=6	=6	=6	=6	=6
8ryy	8ryy	.	8aaa'L)	.
8ryy	8ryy	.	8bb-X'J	.
8ryy@yy	8r8ryy	.	8een'L	.
8ryy	8ryy	.	(8ccc#XJ	.
8ryy	8r8ryy	.	8aaa'L)	.
8ryy	8ryy	.	8bb-X'J	.
=7	=7	=7	=7	=7
8ryy	8ryy	.	8ee'L	.
8ryy	8ryy	.	(8ccc#XJ	.
8ryy@yy	8r8ryy	.	8aaa'L)	.
8ryy	8ryy	.	8bb-X'J	.
4ryy	4r4ryy	.	8ee'L	.
.	.	.	(8ffJ	.
*clefG2	*	*	*	*
=	=	=	=	=
*-	*-	*-	*-	*-
!!!system-decoration: s1[({(s2,s3)})]
!!!RDF**kern: > = above
!!!RDF**kern: < = below
